X: 42741
T: White Crow, The
R: reel
M: 4/4
K: Cmajor
c3 B cGGB|c2 cd eage|c2 dc B2 Ac|BG (3GGG BcdB|
c3 B cGGB|c2 cd eage|c2 dc B2 Ac|BG (3GGG BcdB||
gc (3ccc B2 Aa|gc (3ccc agef|gc (3ccc B2 Ac|BG (3GGG BcdB|
gc (3ccc B2 Aa|gc (3ccc agef|gage c2 dc|B2 Ac Bage||
c3 B cGGB|c2 cd eage|c2 dc B2 Ac|BG (3GGG BcdB|
c3 B cGGB|c2 cd eage|c2 dc B2 Ac|BG (3GGG BcdB||
aA (3AAA c2 BG|Acga gede|aA (3AAA c2 Ac|BG (3GGG BcdB|
aA (3AAA c2 BG|Acga gede|gage c2 dc|B2 Ac Bage||

